X: 112103
Q: "Strathspey."
M: C
L: 1/8
K: A
[|\
vA,>vB,uC>uD (E<C)E2 | A>EF>E A>E (A<c) |\
d>c (d<f) e>c (A<c) | (3dcB (3cBA G<B B>uc |]\
(3fed (3cBA G<B B>uc |\
(3agf (3edc (3dfd (3cec | (3fed (3cBA (3GFE (3DCB, |]


